static/img/kroki/e4f71f73a17dbb3ff99b8f2e8ac7d309.svg

<?xml version="1.0" encoding="us-ascii" standalone="no"?><svg xmlns="http://www.w3.org/2000/svg" xmlns:xlink="http://www.w3.org/1999/xlink" contentStyleType="text/css" height="374px" preserveAspectRatio="none" style="width:354px;height:374px;" version="1.1" viewBox="0 0 354 374" width="354px" zoomAndPan="magnify"><defs/><g><!--class azure_monitor_data_collection_rule--><g id="elem_azure_monitor_data_collection_rule"><rect codeLine="23" fill="#3D176E" height="39.7891" id="azure_monitor_data_collection_rule" rx="2.5" ry="2.5" style="stroke:#000D19;stroke-width:0.5;" width="340" x="7" y="328.58"/><ellipse cx="22" cy="348.4745" fill="#ADD1B2" rx="11" ry="11" style="stroke:#181818;stroke-width:1.0;"/><path d="M24.9688,354.1152 Q24.3906,354.412 23.75,354.5527 Q23.1094,354.7089 22.4063,354.7089 Q19.9063,354.7089 18.5781,353.0683 Q17.2656,351.412 17.2656,348.287 Q17.2656,345.162 18.5781,343.5058 Q19.9063,341.8495 22.4063,341.8495 Q23.1094,341.8495 23.75,342.0058 Q24.4063,342.162 24.9688,342.4589 L24.9688,345.1777 Q24.3438,344.5995 23.75,344.3339 Q23.1563,344.0527 22.5313,344.0527 Q21.1875,344.0527 20.5,345.1308 Q19.8125,346.1933 19.8125,348.287 Q19.8125,350.3808 20.5,351.4589 Q21.1875,352.5214 22.5313,352.5214 Q23.1563,352.5214 23.75,352.2558 Q24.3438,351.9745 24.9688,351.3964 L24.9688,354.1152 Z " fill="#000000"/><text fill="#D9B8FF" font-family="Helvetica" font-size="17" lengthAdjust="spacing" textLength="298" x="41" y="354.3598">azure_monitor_data_collection_rule</text></g><!--class microsoft_resource--><g id="elem_microsoft_resource"><rect codeLine="26" fill="#3D176E" height="39.7891" id="microsoft_resource" rx="2.5" ry="2.5" style="stroke:#000D19;stroke-width:0.5;" width="200" x="77" y="167.79"/><ellipse cx="92" cy="187.6845" fill="#ADD1B2" rx="11" ry="11" style="stroke:#181818;stroke-width:1.0;"/><path d="M94.9688,193.3252 Q94.3906,193.622 93.75,193.7627 Q93.1094,193.9189 92.4063,193.9189 Q89.9063,193.9189 88.5781,192.2783 Q87.2656,190.622 87.2656,187.497 Q87.2656,184.372 88.5781,182.7158 Q89.9063,181.0595 92.4063,181.0595 Q93.1094,181.0595 93.75,181.2158 Q94.4063,181.372 94.9688,181.6689 L94.9688,184.3877 Q94.3438,183.8095 93.75,183.5439 Q93.1563,183.2627 92.5313,183.2627 Q91.1875,183.2627 90.5,184.3408 Q89.8125,185.4033 89.8125,187.497 Q89.8125,189.5908 90.5,190.6689 Q91.1875,191.7314 92.5313,191.7314 Q93.1563,191.7314 93.75,191.4658 Q94.3438,191.1845 94.9688,190.6064 L94.9688,193.3252 Z " fill="#000000"/><text fill="#D9B8FF" font-family="Helvetica" font-size="17" lengthAdjust="spacing" textLength="158" x="111" y="193.5698">microsoft_resource</text></g><!--class resource--><g id="elem_resource"><rect codeLine="29" fill="#3D176E" height="39.7891" id="resource" rx="2.5" ry="2.5" style="stroke:#000D19;stroke-width:0.5;" width="113" x="120.5" y="7"/><ellipse cx="135.5" cy="26.8945" fill="#ADD1B2" rx="11" ry="11" style="stroke:#181818;stroke-width:1.0;"/><path d="M138.4688,32.5352 Q137.8906,32.832 137.25,32.9727 Q136.6094,33.1289 135.9063,33.1289 Q133.4063,33.1289 132.0781,31.4883 Q130.7656,29.832 130.7656,26.707 Q130.7656,23.582 132.0781,21.9258 Q133.4063,20.2695 135.9063,20.2695 Q136.6094,20.2695 137.25,20.4258 Q137.9063,20.582 138.4688,20.8789 L138.4688,23.5977 Q137.8438,23.0195 137.25,22.7539 Q136.6563,22.4727 136.0313,22.4727 Q134.6875,22.4727 134,23.5508 Q133.3125,24.6133 133.3125,26.707 Q133.3125,28.8008 134,29.8789 Q134.6875,30.9414 136.0313,30.9414 Q136.6563,30.9414 137.25,30.6758 Q137.8438,30.3945 138.4688,29.8164 L138.4688,32.5352 Z " fill="#000000"/><text fill="#D9B8FF" font-family="Helvetica" font-size="17" lengthAdjust="spacing" textLength="71" x="154.5" y="32.7798">resource</text></g><!--reverse link microsoft_resource to azure_monitor_data_collection_rule--><g id="link_microsoft_resource_azure_monitor_data_collection_rule"><path codeLine="32" d="M177,225.84 C177,256.36 177,297.69 177,328.25 " fill="none" id="microsoft_resource-backto-azure_monitor_data_collection_rule" style="stroke:#FFAF37;stroke-width:2.0;"/><polygon fill="none" points="177,207.84,171,225.84,183,225.84,177,207.84" style="stroke:#FFAF37;stroke-width:2.0;"/></g><!--reverse link resource to microsoft_resource--><g id="link_resource_microsoft_resource"><path codeLine="33" d="M177,65.05 C177,95.57 177,136.9 177,167.46 " fill="none" id="resource-backto-microsoft_resource" style="stroke:#FFAF37;stroke-width:2.0;"/><polygon fill="none" points="177,47.05,171,65.05,183,65.05,177,47.05" style="stroke:#FFAF37;stroke-width:2.0;"/></g><!--SRC=[ZP1FJm8n4CNl-ocQU2O1YGA95oGnUY56l6-6TWeDROTCPoMWVdT5q9HT_dYTzvjvxytS6LGObh9M0SCKEHLfuU8I688QCjDgH9vONLaBjjkhYmyKvI8mXe3g4VqRYjDG9rxdJYyYfgIkC-aUz6B6L4MpEoyCCNrB62MZHXvI6egmcrQ2MHWpcFQjhPFrerTTq-dTOWCZDiXxfDrkcywWZboqEjlxZvYu3QfE_hGn2JPYDYn-gBCfjqGMib7qLp-PyHcCSN6cRhBPoouJH-I3-MGEXbPRse9FkKqIP2HPBt7KQ8M3lh6ze_3JARZGszSfs5ICPQ3eXBWq851gyXwrE8ebLnxLUr5yxkdWD5CYAoLZeehrWNeuEyBUVRHQhNzO5hMDvgdY2m00]--></g></svg>

<svg xmlns="http://www.w3.org/2000/svg" width="354" height="374" viewBox="0 0 354 374"><rect width="340" height="39.789" x="7" y="328.58" fill="#3D176E" rx="2.5" ry="2.5" style="stroke:#000d19;stroke-width:.5"/><circle cx="22" cy="348.474" r="11" fill="#ADD1B2" style="stroke:#181818;stroke-width:1"/><path d="M24.969 354.115q-.578.297-1.219.438-.64.156-1.344.156-2.5 0-3.828-1.64-1.312-1.657-1.312-4.782t1.312-4.781q1.328-1.656 3.828-1.656.703 0 1.344.156.656.156 1.219.453v2.719q-.625-.579-1.219-.844-.594-.281-1.219-.281-1.343 0-2.031 1.078-.687 1.062-.687 3.156t.687 3.172q.688 1.062 2.031 1.062.625 0 1.219-.265.594-.281 1.219-.86z"/><text x="41" y="354.36" fill="#D9B8FF" font-family="Helvetica" font-size="17" textLength="298">azure_monitor_data_collection_rule</text><rect width="200" height="39.789" x="77" y="167.79" fill="#3D176E" rx="2.5" ry="2.5" style="stroke:#000d19;stroke-width:.5"/><circle cx="92" cy="187.685" r="11" fill="#ADD1B2" style="stroke:#181818;stroke-width:1"/><path d="M94.969 193.325q-.578.297-1.219.438-.64.156-1.344.156-2.5 0-3.828-1.64-1.312-1.657-1.312-4.782t1.312-4.781q1.328-1.656 3.828-1.656.703 0 1.344.156.656.156 1.219.453v2.719q-.625-.578-1.219-.844-.594-.281-1.219-.281-1.344 0-2.031 1.078-.687 1.062-.687 3.156t.687 3.172q.688 1.062 2.031 1.062.625 0 1.219-.265.594-.281 1.219-.86z"/><text x="111" y="193.57" fill="#D9B8FF" font-family="Helvetica" font-size="17" textLength="158">microsoft_resource</text><rect width="113" height="39.789" x="120.5" y="7" fill="#3D176E" rx="2.5" ry="2.5" style="stroke:#000d19;stroke-width:.5"/><circle cx="135.5" cy="26.895" r="11" fill="#ADD1B2" style="stroke:#181818;stroke-width:1"/><path d="M138.469 32.535q-.578.297-1.219.438-.64.156-1.344.156-2.5 0-3.828-1.64-1.312-1.657-1.312-4.782t1.312-4.781q1.328-1.656 3.828-1.656.703 0 1.344.156.656.156 1.219.453v2.719q-.625-.578-1.219-.844-.594-.281-1.219-.281-1.344 0-2.031 1.078-.687 1.062-.687 3.156t.687 3.172q.688 1.062 2.031 1.062.625 0 1.219-.265.594-.281 1.219-.86z"/><text x="154.5" y="32.78" fill="#D9B8FF" font-family="Helvetica" font-size="17" textLength="71">resource</text><path fill="none" d="M177 225.84v102.41m0-120.41-6 18h12zm0-142.79v102.41m0-120.41-6 18h12z" style="stroke:#ffaf37;stroke-width:2"/></svg>
